X:1
T: Corriegills
C:Carl Volti
R:Strathspey
Q: 128
K:A
M:4/4
L:1/16
|:EE3 E3F E3F A3B|c3A d3c B3A FA3|EE3 E3F E3F A3B|cA3 d3c B4 A4|
EE3 E3F E3F A3B|c3A d3c B3A FA3|EE3 E3F E3F A3B|cA3 d3c B4 A4|
ce3 e3f a3g f3e|f3e c3A FA3 EA3|ce3 e3f a3g f3e|cA3 d3c B4 A4|
ce3 e3f a3g f3e|f3e c3A FA3 EA3|EE3 E3F E3F A3B|cA3 d3c B4 A4:|
